images/icons/add-img.svg

<svg width="30" height="30" fill="none" xmlns="http://www.w3.org/2000/svg"><path d="M3.75 5V1.25h2.5V5H10v2.5H6.25v3.75h-2.5V7.5H0V5h3.75zm3.75 7.5V8.75h3.75V5H20l2.288 2.5h3.962c1.375 0 2.5 1.125 2.5 2.5v15c0 1.375-1.125 2.5-2.5 2.5h-20a2.507 2.507 0 01-2.5-2.5V12.5H7.5zm8.75 11.25c3.45 0 6.25-2.8 6.25-6.25s-2.8-6.25-6.25-6.25S10 14.05 10 17.5s2.8 6.25 6.25 6.25zm-4-6.25c0 2.212 1.787 4 4 4 2.212 0 4-1.788 4-4 0-2.213-1.788-4-4-4-2.213 0-4 1.787-4 4z" fill="#C4C4C4" fill-opacity=".4"/></svg>

<svg width="30" height="30" viewBox="0 0 30 30" fill="none" xmlns="http://www.w3.org/2000/svg">
<path d="M3.75 5V1.25H6.25V5H10V7.5H6.25V11.25H3.75V7.5H0V5H3.75ZM7.5 12.5V8.75H11.25V5H20L22.2875 7.5H26.25C27.625 7.5 28.75 8.625 28.75 10V25C28.75 26.375 27.625 27.5 26.25 27.5H6.25C4.875 27.5 3.75 26.375 3.75 25V12.5H7.5ZM16.25 23.75C19.7 23.75 22.5 20.95 22.5 17.5C22.5 14.05 19.7 11.25 16.25 11.25C12.8 11.25 10 14.05 10 17.5C10 20.95 12.8 23.75 16.25 23.75ZM12.25 17.5C12.25 19.7125 14.0375 21.5 16.25 21.5C18.4625 21.5 20.25 19.7125 20.25 17.5C20.25 15.2875 18.4625 13.5 16.25 13.5C14.0375 13.5 12.25 15.2875 12.25 17.5Z" fill="#C4C4C4" fill-opacity="0.4"/>
</svg>
